editor/icons/icon_time.svg

<svg height="16" viewBox="0 0 16 16" width="16" xmlns="http://www.w3.org/2000/svg"><g fill="#e0e0e0" transform="matrix(.0279396 0 0 .02755726 .914016 .7343)"><path d="m276.193 58.507v-18.118h14.578c11.153 0 20.194-9.042 20.194-20.194s-9.042-20.195-20.194-20.195h-69.544c-11.153 0-20.194 9.042-20.194 20.194s9.042 20.194 20.194 20.194h14.578v18.118c-115.853 10.254-207.006 107.821-207.006 226.293 0 125.279 101.922 227.201 227.201 227.201s227.201-101.922 227.201-227.201c-.001-118.472-91.155-216.039-207.008-226.292zm0 412.009v-20.124c0-11.153-9.042-20.194-20.194-20.194-11.153 0-20.194 9.042-20.194 20.194v20.124c-86.91-9.385-156.137-78.614-165.522-165.522h20.124c11.153 0 20.194-9.042 20.194-20.194s-9.042-20.194-20.194-20.194h-20.125c9.385-86.91 78.614-156.137 165.522-165.523v20.124c0 11.153 9.042 20.194 20.194 20.194 11.153 0 20.194-9.042 20.194-20.194v-20.126c86.91 9.385 156.137 78.614 165.522 165.523h-20.124c-11.153 0-20.194 9.042-20.194 20.194s9.042 20.194 20.194 20.194h20.126c-9.385 86.911-78.613 156.14-165.523 165.524z"/><path d="m317.248 194.99-58.179 58.18c-1.011-.097-2.034-.151-3.071-.151-17.552 0-31.779 14.229-31.779 31.779 0 17.552 14.228 31.779 31.779 31.779s31.779-14.229 31.779-31.779c0-1.037-.054-2.06-.151-3.07l58.178-58.18c7.887-7.885 7.887-20.672 0-28.559-7.882-7.886-20.669-7.886-28.556.001z"/></g></svg>

<?xml version="1.0" encoding="UTF-8" standalone="no"?>
<svg
   xmlns:dc="http://purl.org/dc/elements/1.1/"
   xmlns:cc="http://creativecommons.org/ns#"
   xmlns:rdf="http://www.w3.org/1999/02/22-rdf-syntax-ns#"
   xmlns:svg="http://www.w3.org/2000/svg"
   xmlns="http://www.w3.org/2000/svg"
   xmlns:sodipodi="http://sodipodi.sourceforge.net/DTD/sodipodi-0.dtd"
   xmlns:inkscape="http://www.inkscape.org/namespaces/inkscape"
   width="16"
   height="16"
   version="1.1"
   viewBox="0 0 16 16"
   id="svg6"
   sodipodi:docname="icon_time.svg"
   inkscape:version="0.92.3 (2405546, 2018-03-11)">
  <metadata
     id="metadata12">
    <rdf:RDF>
      <cc:Work
         rdf:about="">
        <dc:format>image/svg+xml</dc:format>
        <dc:type
           rdf:resource="http://purl.org/dc/dcmitype/StillImage" />
        <dc:title></dc:title>
      </cc:Work>
    </rdf:RDF>
  </metadata>
  <defs
     id="defs10" />
  <sodipodi:namedview
     pagecolor="#ffffff"
     bordercolor="#666666"
     borderopacity="1"
     objecttolerance="10"
     gridtolerance="10"
     guidetolerance="10"
     inkscape:pageopacity="0"
     inkscape:pageshadow="2"
     inkscape:window-width="836"
     inkscape:window-height="480"
     id="namedview8"
     showgrid="false"
     inkscape:zoom="7.375"
     inkscape:cx="4.4999435"
     inkscape:cy="13.04848"
     inkscape:window-x="744"
     inkscape:window-y="280"
     inkscape:window-maximized="0"
     inkscape:current-layer="g4" />
  <g
     transform="translate(0 -1036.4)"
     id="g4">
    <g
       id="g8"
       style="fill:#e0e0e0;fill-opacity:1"
       transform="matrix(0.0279396,0,0,0.02755726,0.91401567,1037.1343)">
      <g
         id="g6"
         style="fill:#e0e0e0;fill-opacity:1">
        <path
           d="M 276.193,58.507 V 40.389 h 14.578 c 11.153,0 20.194,-9.042 20.194,-20.194 C 310.965,9.043 301.923,0 290.771,0 h -69.544 c -11.153,0 -20.194,9.042 -20.194,20.194 0,11.152 9.042,20.194 20.194,20.194 h 14.578 V 58.506 C 119.952,68.76 28.799,166.327 28.799,284.799 28.799,410.078 130.721,512 256,512 381.279,512 483.201,410.078 483.201,284.799 483.2,166.327 392.046,68.76 276.193,58.507 Z m 0,412.009 v -20.124 c 0,-11.153 -9.042,-20.194 -20.194,-20.194 -11.153,0 -20.194,9.042 -20.194,20.194 v 20.124 C 148.895,461.131 79.668,391.902 70.283,304.994 h 20.124 c 11.153,0 20.194,-9.042 20.194,-20.194 0,-11.152 -9.042,-20.194 -20.194,-20.194 H 70.282 c 9.385,-86.91 78.614,-156.137 165.522,-165.523 v 20.124 c 0,11.153 9.042,20.194 20.194,20.194 11.153,0 20.194,-9.042 20.194,-20.194 V 99.081 c 86.91,9.385 156.137,78.614 165.522,165.523 H 421.59 c -11.153,0 -20.194,9.042 -20.194,20.194 0,11.152 9.042,20.194 20.194,20.194 h 20.126 c -9.385,86.911 -78.613,156.14 -165.523,165.524 z"
           id="path2"
           style="fill:#e0e0e0;fill-opacity:1"
           inkscape:connector-curvature="0" />
        <path
           d="m 317.248,194.99 -58.179,58.18 c -1.011,-0.097 -2.034,-0.151 -3.071,-0.151 -17.552,0 -31.779,14.229 -31.779,31.779 0,17.552 14.228,31.779 31.779,31.779 17.551,0 31.779,-14.229 31.779,-31.779 0,-1.037 -0.054,-2.06 -0.151,-3.07 l 58.178,-58.18 c 7.887,-7.885 7.887,-20.672 0,-28.559 -7.882,-7.886 -20.669,-7.886 -28.556,0.001 z"
           id="path4"
           style="fill:#e0e0e0;fill-opacity:1"
           inkscape:connector-curvature="0" />
      </g>
    </g>
  </g>
</svg>
